src/24/actions/edit-table-insert-row-above.svg

<svg xmlns="http://www.w3.org/2000/svg" viewBox="0 0 24 24"><path d="M4 4v16h16V10h-1v4h-2v-4h-1v4h-2V4h-1v10h-2v-4h-1v4H8v-4H7v4H5V4H4zm13.5 0L15 9h5l-2.5-5zM5 15h2v4H5v-4zm3 0h2v4H8v-4zm3 0h2v4h-2v-4zm3 0h2v4h-2v-4zm3 0h2v4h-2v-4z" fill="currentColor" color="#5d656b"/><path d="M4 4v6h10V4H4zm1 1h.293l4 4H5V5zm1.707 0h2.586L13 8.707V9h-2.293l-4-4zm4 0H13v2.293L10.707 5z" fill="currentColor" color="#3daee9"/></svg>

<svg xmlns="http://www.w3.org/2000/svg" viewBox="0 0 24 24">
  <defs id="defs3051">
    <style type="text/css" id="current-color-scheme">
      .ColorScheme-Text {
        color:#5d656b;
      }
      .ColorScheme-Highlight {
        color:#3daee9;
      }
      </style>
  </defs>
 <path 
     style="fill:currentColor;fill-opacity:1;stroke:none" 
     d="M 4 4 L 4 10 L 4 20 L 5 20 L 20 20 L 20 19 L 20 10 L 19 10 L 19 14 L 17 14 L 17 10 L 16 10 L 16 14 L 14 14 L 14 10 L 14 4 L 13 4 L 13 10 L 13 14 L 11 14 L 11 10 L 10 10 L 10 14 L 8 14 L 8 10 L 7 10 L 7 14 L 6 14 L 5 14 L 5 10 L 5 4 L 4 4 z M 17.5 4 L 15 9 L 20 9 L 17.5 4 z M 5 15 L 6 15 L 7 15 L 7 16 L 7 19 L 5 19 L 5 15 z M 8 15 L 10 15 L 10 19 L 8 19 L 8 16 L 8 15 z M 11 15 L 13 15 L 13 19 L 11 19 L 11 15 z M 14 15 L 16 15 L 16 16 L 16 19 L 14 19 L 14 15 z M 17 15 L 18.099609 15 L 19 15 L 19 19 L 17 19 L 17 16 L 17 15 z "
     class="ColorScheme-Text"
     />
 <path 
     style="fill:currentColor;fill-opacity:1;stroke:none" 
     d="M 4 4 L 4 10 L 5 10 L 10.292969 10 L 13 10 L 14 10 L 14 4 L 13 4 L 5 4 L 4 4 z M 5 5 L 5.2929688 5 L 9.2929688 9 L 5 9 L 5 5 z M 6.7070312 5 L 9.2929688 5 L 13 8.7070312 L 13 9 L 10.707031 9 L 6.7070312 5 z M 10.707031 5 L 13 5 L 13 7.2929688 L 10.707031 5 z "
     class="ColorScheme-Highlight"
     />
</svg>
